albertroad.htmlalbertroad.htmlalbertroad.htmlalbertroad.htmlalbertroad.htmlalbertroad.htmlalbertroad.htmlalbertroad.htmlalbertroad.htmlPadraig Rynne
albertroad.htmlFrom <I>Cian: Three Shouts From a Hill</I>
albertroad.htmlalbertroad.html<PRE>T:Inches to Dublin
T:Inches to Dublin
M:C|
L:1/8
C:Padraig Rynne
R:reel
D:Cian: Three Shouts from a Hill
Z:Devin McCabe
K:EMin
e2ba be e/2e/2e|e2ba be e/2e/2e|gf (3efg fedb|c'3b bagf|
!e2ba be e/2e/2e|e2ba be e/2e/2e|gf (3efg fedf|1adfd efgf:|2adfd e2ce|
!:B~g3 gfed|B~g3 gf (3efg|faag fede|e/2e/2e de edcd|
!B~g3 gfed|B~g3 gfef|gabg abc'a|1bd'af e3d:|2bd'af efgf||

%  ABC2Win Version 2.1 12/24/2000
albertroad.htmlalbertroad.htmlalbertroad.htmlalbertroad.htmlalbertroad.htmlalbertroad.htmlalbertroad.html